svg/fluentui-system-icons/ic_fluent_arrow_clockwise_dashes_24_regular.svg

<svg width="24" height="24" viewBox="0 0 24 24" fill="none" xmlns="http://www.w3.org/2000/svg">
<path d="M10.1289 3.19492C10.7331 3.0671 11.3591 3 12 3C12.6409 3 13.2669 3.0671 13.8711 3.19492C14.2764 3.28065 14.5354 3.67866 14.4496 4.08391C14.3639 4.48915 13.9659 4.74817 13.5607 4.66245C13.0579 4.55609 12.5359 4.5 12 4.5C11.4641 4.5 10.9421 4.55609 10.4393 4.66245C10.0341 4.74817 9.63608 4.48915 9.55035 4.08391C9.46463 3.67866 9.72365 3.28065 10.1289 3.19492ZM15.8651 4.67106C16.091 4.32388 16.5556 4.22558 16.9028 4.4515C17.2902 4.70359 17.657 4.98467 18 5.29169V4.25C18 3.83579 18.3358 3.5 18.75 3.5C19.1642 3.5 19.5 3.83579 19.5 4.25V7.25C19.5 7.66421 19.1642 8 18.75 8H15.75C15.3358 8 15 7.66421 15 7.25C15 6.83579 15.3358 6.5 15.75 6.5H17.0991C16.7848 6.20844 16.4454 5.94349 16.0847 5.70874C15.7375 5.48283 15.6392 5.01824 15.8651 4.67106ZM19.5 12V11.25C19.5 10.8358 19.8358 10.5 20.25 10.5C20.6642 10.5 21 10.8358 21 11.25V12C21 12.6409 20.9329 13.2669 20.8051 13.8711C20.7193 14.2764 20.3213 14.5354 19.9161 14.4496C19.5108 14.3639 19.2518 13.9659 19.3376 13.5607C19.4439 13.0579 19.5 12.5359 19.5 12ZM8.13488 4.67106C8.3608 5.01824 8.2625 5.48283 7.91532 5.70874C7.03476 6.28175 6.28175 7.03476 5.70874 7.91532C5.48283 8.2625 5.01824 8.3608 4.67106 8.13488C4.32388 7.90897 4.22558 7.44438 4.4515 7.0972C5.13864 6.04123 6.04123 5.13864 7.0972 4.4515C7.44438 4.22558 7.90897 4.32388 8.13488 4.67106ZM4.66245 10.4393C4.74817 10.0341 4.48915 9.63608 4.08391 9.55035C3.67866 9.46463 3.28065 9.72365 3.19492 10.1289C3.0671 10.7331 3 11.3591 3 12C3 12.6409 3.0671 13.2669 3.19492 13.8711C3.28065 14.2764 3.67866 14.5354 4.08391 14.4496C4.48915 14.3639 4.74817 13.9659 4.66245 13.5607C4.55609 13.0579 4.5 12.5359 4.5 12C4.5 11.4641 4.55609 10.9421 4.66245 10.4393ZM19.3289 15.8651C19.6761 16.091 19.7744 16.5556 19.5485 16.9028C18.8614 17.9588 17.9588 18.8614 16.9028 19.5485C16.5556 19.7744 16.091 19.6761 15.8651 19.3289C15.6392 18.9818 15.7375 18.5172 16.0847 18.2913C16.9652 17.7182 17.7182 16.9652 18.2913 16.0847C18.5172 15.7375 18.9818 15.6392 19.3289 15.8651ZM5.70874 16.0847C5.48283 15.7375 5.01824 15.6392 4.67106 15.8651C4.32388 16.091 4.22558 16.5556 4.4515 16.9028C5.13864 17.9588 6.04123 18.8614 7.0972 19.5485C7.44438 19.7744 7.90897 19.6761 8.13488 19.3289C8.3608 18.9818 8.2625 18.5172 7.91532 18.2913C7.03476 17.7182 6.28175 16.9652 5.70874 16.0847ZM9.55035 19.9161C9.63608 19.5108 10.0341 19.2518 10.4393 19.3376C10.9421 19.4439 11.4641 19.5 12 19.5C12.5359 19.5 13.0579 19.4439 13.5607 19.3376C13.9659 19.2518 14.3639 19.5108 14.4496 19.9161C14.5354 20.3213 14.2764 20.7193 13.8711 20.8051C13.2669 20.9329 12.6409 21 12 21C11.3591 21 10.7331 20.9329 10.1289 20.8051C9.72365 20.7193 9.46463 20.3213 9.55035 19.9161Z" fill="#212121"/>
</svg>

<svg xmlns="http://www.w3.org/2000/svg" width="24" height="24"><path d="M10.129 3.195a9.033 9.033 0 0 1 3.742 0 .75.75 0 1 1-.31 1.467 7.534 7.534 0 0 0-3.122 0 .75.75 0 0 1-.31-1.467Zm5.736 1.476a.75.75 0 0 1 1.038-.22 9.03 9.03 0 0 1 1.097.84V4.25a.75.75 0 0 1 1.5 0v3a.75.75 0 0 1-.75.75h-3a.75.75 0 0 1 0-1.5h1.35a7.537 7.537 0 0 0-1.015-.791.75.75 0 0 1-.22-1.038ZM19.5 12v-.75a.75.75 0 0 1 1.5 0V12c0 .64-.067 1.267-.195 1.871a.75.75 0 0 1-1.467-.31A7.538 7.538 0 0 0 19.5 12ZM8.135 4.671a.75.75 0 0 1-.22 1.038A7.545 7.545 0 0 0 5.71 7.915a.75.75 0 1 1-1.257-.818 9.044 9.044 0 0 1 2.645-2.646.75.75 0 0 1 1.038.22ZM4.662 10.44a.75.75 0 0 0-1.467-.31 9.033 9.033 0 0 0 0 3.742.75.75 0 1 0 1.467-.31 7.534 7.534 0 0 1 0-3.122Zm14.667 5.426a.75.75 0 0 1 .22 1.038 9.043 9.043 0 0 1-2.646 2.646.75.75 0 0 1-.818-1.258 7.548 7.548 0 0 0 2.206-2.206.75.75 0 0 1 1.038-.22Zm-13.62.22a.75.75 0 1 0-1.257.818 9.043 9.043 0 0 0 2.645 2.646.75.75 0 0 0 .818-1.258 7.546 7.546 0 0 1-2.206-2.206Zm3.841 3.831a.75.75 0 0 1 .89-.578 7.538 7.538 0 0 0 3.12 0 .75.75 0 1 1 .311 1.467 9.035 9.035 0 0 1-3.742 0 .75.75 0 0 1-.579-.889Z"/></svg>
